X:105
T:Bonnie Dundee 
C:Joe Buchanan's Scottish Tome - Page 130.3
I:130 3
Z:Carl Allison
R:Jig
L:1/8
M:6/8
K:A
e/f/ | "A"e>fe "A7"e>ce | "D"a>gf "E7"(e2 d) | "A"(c>e)A "F#m"(c>e)c | "B7"B>cB "E7"B>cd |
"A"e>fe "A7"e>ce | "D"a>gf "E7"(e2 d) | "A"(c>e)c "E7"(B>e)c | "A"A>BA A2 :|
E | "A"E>AA A>dc | "E7"B>EE uE2- uE | "E7"E>BB B>cd | "A"d>cc (c2 A) |
"A"c>Bc "Bm"d>cd | "A/C#"e>de "D"f>ed | "E7"(c>e)c (B>e)c | "D"A>BA "A"A2 :|

